assets/icon/microphone.svg

<svg width="17" height="24" viewBox="0 0 17 24" fill="none" xmlns="http://www.w3.org/2000/svg">
  <path
    d="M15.9 10.8C16.3556 10.8 16.7322 11.1386 16.7918 11.5778L16.8 11.7V12.3C16.8 16.5713 13.494 20.0705 9.3012 20.378L9.3 23.1C9.3 23.597 8.89704 24 8.4 24C7.94436 24 7.5678 23.6614 7.50816 23.2222L7.5 23.1V20.3782C3.39988 20.0779 0.147396 16.7256 0.00487175 12.5836L0 12.3V11.7C0 11.203 0.402948 10.8 0.9 10.8C1.35564 10.8 1.73219 11.1386 1.79178 11.5778L1.8 11.7V12.3C1.8 15.6924 4.48134 18.4585 7.84032 18.5947L8.1 18.6H8.7C12.0924 18.6 14.8585 15.9187 14.9947 12.5597L15 12.3V11.7C15 11.203 15.403 10.8 15.9 10.8ZM8.4 0C11.0509 0 13.2 2.14903 13.2 4.8V12C13.2 14.6509 11.0509 16.8 8.4 16.8C5.74903 16.8 3.6 14.6509 3.6 12V4.8C3.6 2.14903 5.74903 0 8.4 0ZM8.4 1.8C6.74316 1.8 5.4 3.14315 5.4 4.8V12C5.4 13.6568 6.74316 15 8.4 15C10.0568 15 11.4 13.6568 11.4 12V4.8C11.4 3.14315 10.0568 1.8 8.4 1.8Z"
  ></path>
</svg>

<svg fill="none" xmlns="http://www.w3.org/2000/svg" viewBox="0 0 17 24"><path d="M15.9 10.8a.9.9 0 0 1 .892.778l.008.122v.6a8.1 8.1 0 0 1-7.499 8.078L9.3 23.1a.9.9 0 0 1-1.792.122L7.5 23.1v-2.722a8.101 8.101 0 0 1-7.495-7.794L0 12.3v-.6a.9.9 0 0 1 1.792-.122l.008.122v.6a6.3 6.3 0 0 0 6.04 6.295l.26.005h.6a6.3 6.3 0 0 0 6.295-6.04L15 12.3v-.6a.9.9 0 0 1 .9-.9ZM8.4 0a4.8 4.8 0 0 1 4.8 4.8V12a4.8 4.8 0 0 1-9.6 0V4.8A4.8 4.8 0 0 1 8.4 0Zm0 1.8a3 3 0 0 0-3 3V12a3 3 0 0 0 6 0V4.8a3 3 0 0 0-3-3Z"/></svg>
